lite/images/sprite/ico-arrow/ico-arrow-d~hover.svg

<?xml version="1.0" encoding="utf-8"?>
<!DOCTYPE svg PUBLIC "-//W3C//DTD SVG 1.1//EN" "http://www.w3.org/Graphics/SVG/1.1/DTD/svg11.dtd">
<svg version="1.1" baseProfile="full"
 xmlns="http://www.w3.org/2000/svg"
 xmlns:xlink="http://www.w3.org/1999/xlink"
 xmlns:ev="http://www.w3.org/2001/xml-events" 
  height="8px" 
  width="12px" 
>
<path fill="#797979"
 d="M6.00400000000002,4.30799999999999 C6.00400000000002,4.30799999999999 9.80499999999995,0.50800000000004 9.80499999999995,0.50800000000004 C10.187,0.12599999999998 10.806,0.12599999999998 11.188,0.50800000000004 C11.188,0.50800000000004 11.534,0.85300000000007 11.534,0.85300000000007 C11.9160000000001,1.2360000000001 11.9160000000001,1.85500000000002 11.534,2.23700000000008 C11.534,2.23700000000008 7.05999999999995,6.70900000000006 7.05999999999995,6.70900000000006 C7.05399999999997,6.7170000000001 7.05100000000004,6.72600000000011 7.04499999999996,6.73199999999997 C7.04499999999996,6.73199999999997 6.69899999999996,7.07799999999997 6.69899999999996,7.07799999999997 C6.50699999999995,7.26999999999998 6.25599999999997,7.36500000000001 6.00400000000002,7.36400000000003 C5.75199999999995,7.36500000000001 5.5,7.26999999999998 5.30799999999999,7.07799999999997 C5.30799999999999,7.07799999999997 4.96299999999997,6.73199999999997 4.96299999999997,6.73199999999997 C4.95500000000004,6.72600000000011 4.95399999999995,6.71599999999989 4.947,6.70900000000006 C4.947,6.70900000000006 0.47500000000002,2.23700000000008 0.47500000000002,2.23700000000008 C0.09299999999996,1.85500000000002 0.09299999999996,1.2360000000001 0.47500000000002,0.85300000000007 C0.47500000000002,0.85300000000007 0.81899999999996,0.50800000000004 0.81899999999996,0.50800000000004 C1.20100000000002,0.12599999999998 1.82100000000003,0.12599999999998 2.20399999999995,0.50800000000004 C2.20399999999995,0.50800000000004 6.00400000000002,4.30799999999999 6.00400000000002,4.30799999999999 Z "/>
</svg>

<?xml version="1.0" encoding="utf-8"?><svg baseProfile="full" xmlns="http://www.w3.org/2000/svg" height="8" width="12"><path fill="#797979" d="M6.004 4.308s3.8-3.8 3.8-3.8c.383-.382 1.002-.382 1.384 0 0 0 .346.345.346.345.382.383.382 1.002 0 1.384 0 0-4.474 4.472-4.474 4.472-.006.006-.01.015-.015.02 0 0-.346.347-.346.347-.194.192-.445.287-.697.286-.252 0-.504-.094-.696-.286 0 0-.345-.346-.345-.346-.008-.005-.01-.015-.016-.022 0 0-4.472-4.473-4.472-4.473-.382-.382-.382-1 0-1.384 0 0 .344-.344.344-.344.38-.382 1-.382 1.384 0 0 0 3.8 3.8 3.8 3.8z"/></svg>
